X:7
T: Ta4i ya2ng chu1 la2i xi3 ya2ng ya2ng
N: C0013
O: Asien, Ostasien, China, Si4chua1n
R: Grundton liegt in der zweigestrichenen Oktave; Verzierung
M: 2/4
L: 1/8
K: F
FGF_E | F2Gz |
_EFGF- | F_ECz |
B,CEC | FFC2 | B,2Cz |
_ECFE- | ECF2- | F4

